static/img/kroki/e5ef331cd8356819982973d149721fd8.svg

<?xml version="1.0" encoding="us-ascii" standalone="no"?><svg xmlns="http://www.w3.org/2000/svg" xmlns:xlink="http://www.w3.org/1999/xlink" contentStyleType="text/css" height="152px" preserveAspectRatio="none" style="width:431px;height:152px;" version="1.1" viewBox="0 0 431 152" width="431px" zoomAndPan="magnify"><defs/><g><!--class azure_cosmos_db_account--><g id="elem_azure_cosmos_db_account"><rect codeLine="23" fill="#3D176E" height="39.7891" id="azure_cosmos_db_account" rx="2.5" ry="2.5" style="stroke:#000D19;stroke-width:0.5;" width="261" x="85" y="7"/><ellipse cx="100" cy="26.8945" fill="#ADD1B2" rx="11" ry="11" style="stroke:#181818;stroke-width:1.0;"/><path d="M102.9688,32.5352 Q102.3906,32.832 101.75,32.9727 Q101.1094,33.1289 100.4063,33.1289 Q97.9063,33.1289 96.5781,31.4883 Q95.2656,29.832 95.2656,26.707 Q95.2656,23.582 96.5781,21.9258 Q97.9063,20.2695 100.4063,20.2695 Q101.1094,20.2695 101.75,20.4258 Q102.4063,20.582 102.9688,20.8789 L102.9688,23.5977 Q102.3438,23.0195 101.75,22.7539 Q101.1563,22.4727 100.5313,22.4727 Q99.1875,22.4727 98.5,23.5508 Q97.8125,24.6133 97.8125,26.707 Q97.8125,28.8008 98.5,29.8789 Q99.1875,30.9414 100.5313,30.9414 Q101.1563,30.9414 101.75,30.6758 Q102.3438,30.3945 102.9688,29.8164 L102.9688,32.5352 Z " fill="#000000"/><text fill="#D9B8FF" font-family="Helvetica" font-size="17" lengthAdjust="spacing" textLength="219" x="119" y="32.7798">azure_cosmos_db_account</text></g><!--class azure_cosmos_db_mongo_db_user_definition--><g id="elem_azure_cosmos_db_mongo_db_user_definition"><rect codeLine="26" fill="#3D176E" height="39.7891" id="azure_cosmos_db_mongo_db_user_definition" rx="2.5" ry="2.5" style="stroke:#000D19;stroke-width:0.5;" width="417" x="7" y="106.79"/><ellipse cx="22" cy="126.6845" fill="#ADD1B2" rx="11" ry="11" style="stroke:#181818;stroke-width:1.0;"/><path d="M24.9688,132.3252 Q24.3906,132.622 23.75,132.7627 Q23.1094,132.9189 22.4063,132.9189 Q19.9063,132.9189 18.5781,131.2783 Q17.2656,129.622 17.2656,126.497 Q17.2656,123.372 18.5781,121.7158 Q19.9063,120.0595 22.4063,120.0595 Q23.1094,120.0595 23.75,120.2158 Q24.4063,120.372 24.9688,120.6689 L24.9688,123.3877 Q24.3438,122.8095 23.75,122.5439 Q23.1563,122.2627 22.5313,122.2627 Q21.1875,122.2627 20.5,123.3408 Q19.8125,124.4033 19.8125,126.497 Q19.8125,128.5908 20.5,129.6689 Q21.1875,130.7314 22.5313,130.7314 Q23.1563,130.7314 23.75,130.4658 Q24.3438,130.1845 24.9688,129.6064 L24.9688,132.3252 Z " fill="#000000"/><text fill="#D9B8FF" font-family="Helvetica" font-size="17" lengthAdjust="spacing" textLength="375" x="41" y="132.5698">azure_cosmos_db_mongo_db_user_definition</text></g><!--link azure_cosmos_db_account to azure_cosmos_db_mongo_db_user_definition--><g id="link_azure_cosmos_db_account_azure_cosmos_db_mongo_db_user_definition"><path codeLine="29" d="M215.5,47.22 C215.5,64.36 215.5,83.27 215.5,100.41 " fill="none" id="azure_cosmos_db_account-to-azure_cosmos_db_mongo_db_user_definition" style="stroke:#1A83AF;stroke-width:2.0;"/><polygon fill="#1A83AF" points="215.5,106.41,219.5,97.41,215.5,101.41,211.5,97.41,215.5,106.41" style="stroke:#1A83AF;stroke-width:2.0;"/></g><!--SRC=[ZP11Jm8n48Nl-okQS2PX9GfSJ5OIeXTYn9incsuxXOPjXqnd9M3yxxAYfkwouAsPz_NDUxEo6WIu3U-40rS0XIIihTz8aavaHBYTOeaaUiP8CnmrnHbwlWZCfGDn3-KRi5MoIJolh5fx245SHTATLEibOUNrqPv9-d2Gm7D4JKiPGiPCjgWOeZ1wKeoDQP9DqzvGfwCRQ6586kWR6Gm6EfqqaOkhplR-9HPs3oADZpP7XbRCreelwcpAceX2jeh-w9qP7wNMrY_5TJHxEcOY3_HdlbX9ZTkQDh8CyPh0G82ysy2qrGecOsr69-67BZXHzUc4t5S4kSBWCEIwoALI1vR5Uv9yT20E_HBhHnM0SWt6UiiM_V5Fbs7_fPTcus4sU-tV_jio-GG0]--></g></svg>

<svg xmlns="http://www.w3.org/2000/svg" width="431" height="152" viewBox="0 0 431 152"><rect width="261" height="39.789" x="85" y="7" fill="#3D176E" rx="2.5" ry="2.5" style="stroke:#000d19;stroke-width:.5"/><circle cx="100" cy="26.895" r="11" fill="#ADD1B2" style="stroke:#181818;stroke-width:1"/><path d="M102.969 32.535q-.578.297-1.219.438-.64.156-1.344.156-2.5 0-3.828-1.64-1.312-1.657-1.312-4.782t1.312-4.781q1.328-1.656 3.828-1.656.703 0 1.344.156.656.156 1.219.453v2.719q-.625-.578-1.219-.844-.594-.281-1.219-.281-1.344 0-2.031 1.078-.687 1.062-.687 3.156t.687 3.172q.688 1.062 2.031 1.062.625 0 1.219-.265.594-.281 1.219-.86z"/><text x="119" y="32.78" fill="#D9B8FF" font-family="Helvetica" font-size="17" textLength="219">azure_cosmos_db_account</text><rect width="417" height="39.789" x="7" y="106.79" fill="#3D176E" rx="2.5" ry="2.5" style="stroke:#000d19;stroke-width:.5"/><circle cx="22" cy="126.684" r="11" fill="#ADD1B2" style="stroke:#181818;stroke-width:1"/><path d="M24.969 132.325q-.578.297-1.219.438-.64.156-1.344.156-2.5 0-3.828-1.64-1.312-1.657-1.312-4.782t1.312-4.781q1.328-1.656 3.828-1.656.703 0 1.344.156.656.156 1.219.453v2.719q-.625-.579-1.219-.844-.594-.281-1.219-.281-1.343 0-2.031 1.078-.687 1.062-.687 3.156t.687 3.172q.688 1.062 2.031 1.062.625 0 1.219-.265.594-.281 1.219-.86z"/><text x="41" y="132.57" fill="#D9B8FF" font-family="Helvetica" font-size="17" textLength="375">azure_cosmos_db_mongo_db_user_definition</text><path fill="none" d="M215.5 47.22v53.19" style="stroke:#1a83af;stroke-width:2"/><path fill="#1A83AF" d="m215.5 106.41 4-9-4 4-4-4z" style="stroke:#1a83af;stroke-width:2"/></svg>
